public/img/quarter-icon-5.svg

<svg width="55" height="55" viewBox="0 0 55 55" fill="none" xmlns="http://www.w3.org/2000/svg">
<g clip-path="url(#clip0)">
<path d="M53.3357 46.5568L53.3061 46.5272L53.3399 46.4934L52.5839 45.8557L47.3297 40.9689C47.3297 40.9689 47.2368 41.0661 47.0847 41.2097L46.9453 41.3617C45.75 42.4852 41.9024 45.7247 37.3916 45.7839C37.2944 45.7839 37.2015 45.7839 37.1001 45.7839C34.7265 45.5262 32.412 44.2507 30.0679 41.8897C26.1653 37.9702 21.836 35.8457 17.169 35.5543C17.038 35.5543 16.9113 35.5543 16.7804 35.5543C16.0783 35.4919 15.373 35.4736 14.6686 35.4994C7.64472 35.7866 2.42014 40.5001 0.650452 42.3163C0.278774 42.6668 0.0506874 42.9076 0.00422773 42.954L0.0337703 42.9836L0 43.0174L0.756042 43.6552L6.01018 48.5376C6.01018 48.5376 6.10313 48.4405 6.25518 48.2969L6.39454 48.1448C7.59405 47.0256 11.4375 43.7861 15.9483 43.7227C16.0455 43.7227 16.1426 43.7227 16.2397 43.7227C18.6134 43.9804 20.928 45.2559 23.2763 47.6169C27.1747 51.5364 31.5039 53.6609 36.171 53.9523C36.3019 53.9523 36.4328 53.9523 36.5596 53.9523C37.2617 54.0145 37.967 54.0329 38.6714 54.0072C45.6952 53.72 50.9198 49.0107 52.6895 47.1945C53.0611 46.8398 53.2892 46.599 53.3357 46.5525" fill="#FFD100"/>
<path fill-rule="evenodd" clip-rule="evenodd" d="M39.0012 18.512L48.9477 12.7637C48.9786 12.749 49.014 12.747 49.0464 12.758C49.0787 12.7691 49.1055 12.7923 49.1209 12.8228C49.1285 12.8418 49.1285 12.863 49.1209 12.882V33.4045C49.1209 33.4392 49.1071 33.4725 49.0826 33.4971C49.058 33.5216 49.0247 33.5354 48.99 33.5354C48.9604 33.5354 48.9436 33.5354 48.914 33.5058L38.9843 27.7744V30.6718C38.9809 30.9062 38.8871 31.1301 38.7224 31.2969C38.6396 31.3791 38.5414 31.4442 38.4334 31.4884C38.3255 31.5326 38.2098 31.5551 38.0931 31.5545H15.5644C15.4483 31.5551 15.3332 31.5326 15.2259 31.4885C15.1185 31.4443 15.021 31.3793 14.9389 31.2972C14.8568 31.2152 14.7919 31.1176 14.7477 31.0103C14.7035 30.9029 14.6811 30.7879 14.6817 30.6718V15.6062C14.6855 15.3678 14.7772 15.1391 14.9393 14.9642C15.0969 14.8137 15.3044 14.7265 15.5221 14.7192C19.8082 14.8649 24.0015 16.0058 27.7706 18.0517C28.8072 18.0517 29.8182 17.7299 30.664 17.1307C31.5099 16.5315 32.1488 15.6845 32.4926 14.7066H38.1057C38.3411 14.7073 38.5668 14.7997 38.7351 14.9642C38.8983 15.1387 38.9916 15.3673 38.997 15.6062L39.0012 18.512ZM20.2652 9.29192C20.3427 10.2345 20.7719 11.1134 21.4675 11.7542C22.1631 12.3949 23.0743 12.7506 24.02 12.7506C24.9658 12.7506 25.8769 12.3949 26.5725 11.7542C27.2681 11.1134 27.6973 10.2345 27.7748 9.29192C29.4691 10.1379 30.828 11.5313 31.6313 13.2463C32.4347 14.9612 32.6352 16.8972 32.2006 18.7404C31.766 20.5837 30.7217 22.2261 29.2369 23.4016C27.7521 24.577 25.9138 25.2165 24.02 25.2165C22.1263 25.2165 20.288 24.577 18.8032 23.4016C17.3183 22.2261 16.274 20.5837 15.8394 18.7404C15.4048 16.8972 15.6054 14.9612 16.4087 13.2463C17.212 11.5313 18.5709 10.1379 20.2652 9.29192Z" fill="#FFD100"/>
</g>
<defs>
<clipPath id="clip0">
<rect width="54.0621" height="54.0621" fill="white"/>
</clipPath>
</defs>
</svg>

<svg width="55" height="55" fill="none" xmlns="http://www.w3.org/2000/svg"><g clip-path="url(#clip0)" fill="#FFD100"><path d="M53.336 46.557l-.03-.03.034-.034-.756-.637-5.254-4.887s-.093.097-.245.24l-.14.153c-1.195 1.123-5.043 4.363-9.553 4.422H37.1c-2.373-.258-4.688-1.533-7.032-3.894-3.903-3.92-8.232-6.044-12.899-6.336h-.389a16.877 16.877 0 00-2.111-.055C7.645 35.787 2.42 40.5.65 42.316c-.371.35-.6.592-.646.638l.03.03-.034.033.756.638 5.254 4.883s.093-.097.245-.241l.14-.152c1.2-1.12 5.043-4.359 9.553-4.422h.292c2.373.257 4.688 1.533 7.036 3.894 3.899 3.92 8.228 6.044 12.895 6.335h.389c.702.063 1.407.08 2.111.055 7.024-.287 12.249-4.996 14.019-6.813.371-.354.6-.595.646-.642"/><path fill-rule="evenodd" clip-rule="evenodd" d="M39.001 18.512l9.947-5.748a.131.131 0 01.173.059.08.08 0 010 .059v20.523a.131.131 0 01-.131.13c-.03 0-.046 0-.076-.03l-9.93-5.73v2.897a.887.887 0 01-.891.883H15.564a.879.879 0 01-.882-.883V15.606a.967.967 0 01.257-.642.887.887 0 01.583-.245 27.643 27.643 0 0112.249 3.333 5.005 5.005 0 004.722-3.345h5.613c.235 0 .46.093.63.257a.972.972 0 01.261.642l.004 2.906zm-18.736-9.22a3.768 3.768 0 007.51 0 8.404 8.404 0 11-7.51 0z"/></g><defs><clipPath id="clip0"><path fill="#fff" d="M0 0h54.062v54.062H0z"/></clipPath></defs></svg>
